launcher/android/assets/skins/day/svg/mapGiga0.svg

<svg enable-background="new 0 0 61.00 50.75" height="50.752" viewBox="0 0 61 50.75" width="61" xmlns="http://www.w3.org/2000/svg"><path d="m30.5.5c16.5685 0 30 9.32434 30 20.8265 0 4.9316-2.4691 9.4628-6.596 13.0304l-1.5033 1.6803-3.3058 2.314-2.314 3.8016-2.3141 4.6281-2.4793 3.4712-1.6529-.3306-.4959-2.9753-.4167-5.7298c-2.8184.6087-5.8151.9366-8.922.9366-16.5686 0-30-9.3245-30-20.8265 0-11.50216 13.4314-20.8265 30-20.8265z" fill="#a9090b" stroke="#000" stroke-linejoin="round"/></svg>

﻿<?xml version="1.0" encoding="utf-8"?>
<!DOCTYPE svg PUBLIC "-//W3C//DTD SVG 1.1//EN" "http://www.w3.org/Graphics/SVG/1.1/DTD/svg11.dtd">
<svg xmlns="http://www.w3.org/2000/svg" xmlns:xlink="http://www.w3.org/1999/xlink" version="1.1" baseProfile="full" width="61" height="50.752" viewBox="0 0 61.00 50.75" enable-background="new 0 0 61.00 50.75" xml:space="preserve">
	<path fill="#A9090B" fill-opacity="1" stroke-linejoin="round" stroke="#000000" stroke-opacity="1" d="M 30.5,0.5C 47.0685,0.5 60.5,9.82434 60.5,21.3265C 60.5,26.2581 58.0309,30.7893 53.904,34.3569L 52.4007,36.0372L 49.0949,38.3512L 46.7809,42.1528L 44.4668,46.7809L 41.9875,50.2521L 40.3346,49.9215L 39.8387,46.9462L 39.422,41.2164C 36.6036,41.8251 33.6069,42.153 30.5,42.153C 13.9314,42.153 0.5,32.8285 0.5,21.3265C 0.5,9.82434 13.9314,0.5 30.5,0.5 Z "/>
</svg>
